web/packages/design/src/ResourceIcon/assets/zoominfo.svg

<svg width="72" height="72" viewBox="0 0 72 72" fill="none" xmlns="http://www.w3.org/2000/svg">
<g clip-path="url(#clip0_16966_11914)">
<path d="M0 9.00195C0 4.03139 4.02943 0.00195312 9 0.00195312H63C67.9706 0.00195312 72 4.03139 72 9.00195V63.002C72 67.9725 67.9706 72.002 63 72.002H9C4.02943 72.002 0 67.9725 0 63.002V9.00195Z" fill="#FF1B15"/>
<path d="M49.5011 18.0015H53.3677C53.7184 18.0015 54.0011 18.2844 54.0011 18.6351V28.6066C54.0011 28.9574 53.7296 29.2402 53.3791 29.2516H50.1345C49.7838 29.2516 49.5011 28.9688 49.5011 28.618V25.7007L24.4873 49.5016H30.8676C31.2183 49.5016 31.501 49.7844 31.501 50.1352V53.3681C31.501 53.7188 31.2183 54.0016 30.8676 54.0016H18.6344C18.2837 54.0016 18.001 53.7188 18.001 53.3681V49.5016L46.3546 22.5016H43.3845C43.0338 22.5016 42.7511 22.2186 42.7511 21.868V18.6464C42.7511 18.2957 43.0338 18.0128 43.3845 18.0128L49.5011 18.0015ZM27.001 22.5016L37.6177 22.4902C37.9683 22.4902 38.2511 22.2074 38.2511 21.8566V18.6351C38.2511 18.2844 37.9683 18.0015 37.629 18.0015H18.657C18.3063 18.0015 18.0236 18.2844 18.0236 18.6351V28.618C18.0236 28.9688 18.3063 29.2516 18.657 29.2516H21.879C22.2295 29.2516 22.501 28.9688 22.501 28.618V22.5016H27.001ZM49.5011 49.5016H36.6344C36.2838 49.5016 36.001 49.7844 36.001 50.1352V53.3681C36.001 53.7188 36.2838 54.0016 36.6344 54.0016H53.3677C53.7184 54.0016 54.0011 53.7188 54.0011 53.3681V43.3324C54.0011 42.9816 53.7184 42.6988 53.3677 42.6988H50.1345C49.7838 42.6988 49.5011 42.9816 49.5011 43.3324V49.5016Z" fill="white"/>
</g>
<defs>
<clipPath id="clip0_16966_11914">
<rect width="72" height="72" fill="white" transform="translate(0 0.00195312)"/>
</clipPath>
</defs>
</svg>

<svg xmlns="http://www.w3.org/2000/svg" width="72" height="72" fill="none" viewBox="0 0 72 72"><g clip-path="url(#clip0_16966_11914)"><path fill="#ff1b15" d="M0 9.002a9 9 0 0 1 9-9h54a9 9 0 0 1 9 9v54a9 9 0 0 1-9 9H9a9 9 0 0 1-9-9z"/><path fill="#fff" d="M49.501 18.002h3.867c.35 0 .633.282.633.633v9.972a.64.64 0 0 1-.622.645h-3.244a.63.63 0 0 1-.634-.634v-2.917L24.487 49.5h6.38c.351 0 .634.283.634.634v3.233c0 .35-.283.634-.633.634H18.634a.63.63 0 0 1-.633-.634v-3.866l28.354-27h-2.97a.633.633 0 0 1-.634-.634v-3.222c0-.35.283-.633.634-.633zm-22.5 4.5 10.617-.012c.35 0 .633-.283.633-.633v-3.222a.63.63 0 0 0-.622-.634H18.657a.63.63 0 0 0-.633.634v9.983c0 .35.282.634.633.634h3.222c.35 0 .622-.283.622-.634v-6.116zm22.5 27H36.634a.63.63 0 0 0-.633.633v3.233c0 .35.283.634.633.634h16.734c.35 0 .633-.283.633-.634V43.332a.63.63 0 0 0-.633-.633h-3.233a.63.63 0 0 0-.634.633z"/></g><defs><clipPath id="clip0_16966_11914"><path fill="#fff" d="M0 .002h72v72H0z"/></clipPath></defs></svg>
